Codeartpro/images/main/logo-6.svg

<svg width="346" height="40" viewBox="0 0 346 40" fill="none" xmlns="http://www.w3.org/2000/svg">
<g opacity="0.6">
<path d="M246.506 1.72326L249.821 1.5907L251.777 11.6651L247.666 12.4605C246.24 6.89304 241.533 4.60641 237.223 4.34129C234.902 4.17559 231.752 6.56533 231.852 8.91456C231.984 12.0591 237.521 15.0122 240.998 17.1663C246.568 20.5466 248.79 24.1882 248.325 28.6658C247.795 33.9644 241.662 39.9332 230.82 39.9001C223.891 39.867 213.382 36.5199 214.575 29.0303C215.47 23.3303 219.88 21.3088 224.521 21.0437C227.074 20.9111 231.251 22.6012 230.588 25.8158C230.157 27.9698 228.765 28.6658 227.273 28.7983C225.549 28.9309 224.289 27.4065 222.797 27.771C221.139 28.165 219.88 29.6268 220.178 30.9524C221.173 35.2606 226.407 36.553 230.253 36.5861C235.76 36.6156 239.606 33.1728 239.643 29.4943C239.676 24.5896 233.211 22.0047 229.332 18.989C225.917 16.3342 223.63 13.1564 224.293 9.70623C225.32 4.40389 229.896 0.360854 237.455 0.65911C240.107 0.791669 243.091 1.62016 245.014 2.94574L246.506 1.72326ZM289.174 33.6036L288.776 35.9565L275.548 35.8571C271.039 37.8455 267.724 36.7187 266.199 34.896C263.348 35.9234 260.364 36.6856 257.38 36.6561C252.407 36.5861 249.058 32.5799 249.854 29.034C251.18 23.4665 255.921 20.02 268.354 18.7276L269.448 14.6183C270.045 12.3648 267.989 11.702 266.63 11.6688C265.009 11.6357 262.817 12.895 262.718 14.4857C262.519 16.8717 259.867 18.2636 257.91 17.9654C256.186 17.7334 254.827 15.7119 255.424 14.0549C257.247 8.91824 263.02 8.75622 267.591 8.75622C273.758 8.72309 277.637 12.4016 276.211 17.8696L273.261 29.0303C272.465 32.0129 273.592 33.4047 274.985 33.5373C276.377 33.6699 278.068 32.5763 278.499 30.6578L281.35 17.3357C281.648 15.977 281.085 14.0512 277.968 14.8134L278.598 12.2653L287.384 8.75254H290.998L290.368 11.5694C292.821 9.91243 295.507 8.65312 298.292 8.75254C301.408 8.8851 303.364 10.3101 304.325 12.1659C307.011 10.2438 310.492 8.65312 313.542 8.75254C319.278 8.98084 321.002 13.6241 320.107 17.0374L317.156 30.0282C316.758 31.5526 316.725 33.4084 319.609 33.7398L319.178 35.8239H305.287L305.718 33.5042C307.74 33.3053 308.569 32.046 308.901 30.6578L312.382 15.4394C312.68 14.2132 312.647 12.1586 310.26 12.2617C307.077 12.3574 305.552 14.3458 304.856 17.0338L301.474 29.8919C301.08 31.4495 300.944 33.5005 304.325 33.7361L303.928 35.8203H290.036L290.467 33.5005C292.456 33.3016 293.318 32.0423 293.65 30.6542L297.131 15.4394C297.396 14.2132 297.363 12.1586 295.009 12.2617C292.655 12.3279 291.064 13.7493 289.406 15.9733L286.224 30.4222C285.925 31.8435 285.859 33.7361 289.174 33.6036ZM205.226 18.7902C203.369 18.7239 201.546 17.8623 201.513 14.6477C201.513 13.3258 200.651 11.7314 198.694 11.8308C194.285 12.0591 192.859 17.2989 191.832 21.9716C190.937 26.0809 189.378 33.4379 195.081 33.5704C198.798 33.6367 202.607 30.1902 203.737 26.5117L207.451 27.9367C205.892 32.7714 200.223 36.9838 193.228 36.9139C187.559 36.8476 181.657 32.6057 183.447 23.0284C184.774 16.0028 190.443 8.6789 199.229 8.57948C204.633 8.50952 209.307 11.2307 209.208 15.0086C209.142 16.8349 207.053 18.8896 205.226 18.7902ZM180.198 7.28703C182.121 7.28703 184.011 5.63005 184.409 3.64168C184.803 1.65698 183.547 0 181.624 0C179.701 0 177.811 1.65698 177.414 3.64536C177.016 5.63374 178.276 7.28703 180.198 7.28703ZM181.359 33.8024L181.06 35.8902H167.269L167.6 33.5042C169.788 33.471 171.015 32.51 171.545 30.2896L174.463 18.0611C174.728 16.8349 173.8 15.3436 171.446 15.675L171.943 13.289L181.889 8.84828L183.978 8.7194L178.773 30.6873C178.474 32.0092 178.835 33.6036 181.359 33.8024Z" fill="white"/>
<path d="M321.035 35.8571L319.377 27.1414L322.49 26.5117C324.777 31.7809 328.126 33.3053 332.038 33.7693C334.359 34.0344 337.674 32.046 337.74 29.7263C337.774 27.1414 334.193 26.81 331.309 25.7826C327.529 24.4571 322.092 22.8995 322.689 17.564C323.252 12.4274 328.126 8.64946 335.42 8.94772C337.409 9.014 339.564 9.87563 341.222 10.5053L341.756 9.67679H345.171L345.999 16.8349L342.419 17.6634C341.988 14.6146 338.374 12.2617 335.357 12.1623C332.605 12.0628 329.721 13.1896 329.92 15.2774C330.152 17.564 333.832 18.7276 336.252 19.2873C341.49 20.5134 345.535 22.2367 344.972 27.7048C344.437 32.9408 337.877 37.2526 332.141 36.9544C329.423 36.8218 326.671 36.1222 324.35 34.5021L323.886 35.8608H321.035V35.8571ZM128.976 35.8571L127.318 27.1414L130.435 26.5117C132.689 31.7809 136.071 33.3053 139.95 33.7693C142.271 34.0344 145.619 32.046 145.652 29.7263C145.685 27.1414 142.105 26.81 139.22 25.7826C135.474 24.4571 130.037 22.8995 130.601 17.564C131.164 12.4274 136.071 8.64946 143.365 8.94772C145.354 9.014 147.476 9.87563 149.133 10.5053L149.697 9.67679H153.079L153.908 16.8349L150.327 17.6634C149.896 14.6146 146.282 12.2617 143.265 12.1623C140.547 12.0628 137.662 13.1896 137.861 15.2774C138.093 17.564 141.74 18.7276 144.194 19.2873C149.399 20.5134 153.443 22.2367 152.913 27.7048C152.382 32.9408 145.818 37.2526 140.049 36.9544C137.331 36.8218 134.579 36.1222 132.258 34.5021L131.794 35.8608H128.976V35.8571Z" fill="white"/>
<path d="M127.518 33.5041L128.048 36.4204C123.307 37.2157 120.158 36.7187 118.6 34.896C115.782 35.9233 112.765 36.6855 109.781 36.6561C104.841 36.5861 101.459 32.5799 102.288 29.0339C103.581 23.4665 108.322 20.02 120.788 18.7275L121.849 14.6182C122.445 12.3647 120.423 11.7019 119.031 11.6688C117.439 11.6356 115.251 12.8949 115.119 14.4856C114.92 16.8717 112.267 18.2636 110.344 17.9653C108.587 17.7333 107.261 15.7118 107.825 14.0548C109.648 8.91819 115.417 8.75617 120.025 8.75617C126.192 8.72303 130.038 12.4015 128.612 17.8696L125.661 29.0376C125.26 30.5878 124.634 33.4378 127.518 33.5041ZM165.446 32.8413L165.015 35.8902C163.394 36.5198 161.567 36.8843 159.776 36.7481C154.207 36.3541 152.877 32.7419 153.577 29.6894L157.621 12.523H154.24L154.803 9.60675C159.18 8.61257 161.998 5.09976 164.352 0.894714H167.634L165.877 9.37846H171.645L170.883 12.523H165.114L161.301 28.6989C160.705 31.2469 161.235 33.8686 165.446 32.8413Z" fill="white"/>
<path d="M102.189 32.8413L101.724 35.8902C100.1 36.5198 98.2765 36.8844 96.5193 36.7481C90.9164 36.3541 89.5902 32.7382 90.3196 29.6894L94.3312 12.523H90.9827L91.5131 9.60676C95.9226 8.61257 98.7075 5.09977 101.095 0.894714H104.344L102.62 9.37846H108.385L107.622 12.523H101.857L98.0444 28.6989C97.4476 31.2469 97.9781 33.8686 102.189 32.8413ZM74.0043 33.3679L73.3413 35.9859L62.1354 35.8902C60.1461 36.2842 58.1569 36.7849 56.1346 36.7481C54.1453 36.7481 52.355 35.9859 51.261 34.4615C48.675 35.7871 45.4259 36.9138 42.3427 36.7481C39.0936 36.5824 35.0489 33.7361 36.0103 29.358C37.668 22.1667 45.3596 18.8859 53.3165 18.8527L54.3111 14.3789C55.0073 11.2306 51.5262 10.7004 49.4044 12.8544C48.5755 13.7124 48.1777 15.0085 47.5478 15.999C46.6195 17.5234 45.227 18.1862 43.4367 17.9543C41.2817 17.7223 40.4861 15.2368 41.1491 13.7418C42.91 9.50365 48.675 8.07497 53.1176 8.41005C59.6157 8.874 62.069 12.6188 61.2734 16.3267L58.5584 28.8314C58.2269 30.3558 58.0611 33.2353 60.183 33.2721C62.6695 33.3384 63.2331 30.8198 63.6641 29.0303L66.3827 17.6634C66.7474 16.0727 65.9848 14.1506 62.6695 14.482L63.1336 12.0996L72.1514 8.51683H76.0967L75.5331 10.9029C77.7212 9.47788 80.3404 8.21857 83.2579 8.51683C89.6565 9.14648 90.6511 13.4915 89.6565 17.5308L86.6064 29.8919C86.2417 31.4163 85.9765 33.3679 89.5571 33.5004L89.1261 35.8865H75.301L75.8315 33.5004C78.2848 33.3679 78.5501 31.9429 78.8816 30.551L82.3627 16.1353C83.0258 13.4178 81.8286 12.0259 80.3072 11.9928C78.1854 11.9597 76.4614 13.1858 74.7043 14.6771L71.2894 29.6894C70.9211 31.1843 70.5932 33.3384 74.0043 33.3679Z" fill="white"/>
<path d="M43.2082 1.55756L45.4958 8.2849L42.6777 10.369C40.4564 6.13083 36.909 5.46435 33.4279 5.46435H28.7532L26.3993 15.8076H31.6707C33.2621 15.8076 34.7209 14.482 35.5828 13.1896H38.3014L36.0138 23.7243H32.9969C33.0632 20.9737 31.4386 20.3809 29.9467 20.3809H25.3715L23.4155 29.0303C23.0176 30.8199 22.7524 33.3385 26.6645 33.3716L26.2335 36.0891H9.15944L9.82251 33.3716C12.2759 33.4416 13.8009 31.2175 14.2651 29.2623L19.8349 5.56745H15.1271C10.5187 5.56745 5.57885 6.62792 4.6837 11.8971C4.41848 13.6572 5.47939 15.8739 7.10392 16.6692C8.56267 17.3983 9.7562 15.8739 9.39151 14.8134C8.76159 13.1564 11.0823 10.7704 13.0716 10.9029C13.5903 10.9424 14.0934 11.098 14.5438 11.3583C14.9941 11.6186 15.3801 11.9769 15.673 12.4066C15.966 12.8363 16.1584 13.3264 16.2361 13.8406C16.3138 14.3547 16.2747 14.8798 16.1217 15.3768C15.3923 18.1605 11.9738 20.4471 9.15944 20.4803C4.98209 20.5466 -0.189872 17.9948 0.0053654 11.8934C0.274278 4.30815 8.72844 1.55756 14.6961 1.55756H43.2082Z" fill="white"/>
<path d="M267.389 22.3324L265.533 30.1202C265.069 32.0423 262.118 32.7051 260.195 32.6057C258.073 32.5394 256.581 30.0208 257.278 28.3969C259.304 23.5291 263.945 22.4355 267.389 22.3324ZM119.793 22.3324L117.937 30.1202C117.506 32.0423 114.522 32.7051 112.632 32.6057C110.51 32.5394 108.985 30.0208 109.681 28.3969C111.737 23.5291 116.345 22.4355 119.793 22.3324ZM52.4584 22.1041L50.5023 30.9855C49.1098 32.0791 47.3859 32.8413 45.695 32.6057C43.6063 32.3442 42.3134 29.6231 43.4406 27.6347C45.1277 24.5233 48.6457 22.5349 52.4584 22.1041Z" fill="#333646"/>
</g>
</svg>

<svg width="346" height="40" fill="none" xmlns="http://www.w3.org/2000/svg"><g opacity=".6"><path d="M246.506 1.723l3.315-.132 1.956 10.074-4.111.796c-1.426-5.568-6.133-7.855-10.443-8.12-2.321-.165-5.471 2.224-5.371 4.574.132 3.144 5.669 6.097 9.146 8.251 5.57 3.38 7.792 7.022 7.327 11.5-.53 5.298-6.663 11.267-17.505 11.234-6.929-.033-17.438-3.38-16.245-10.87.895-5.7 5.305-7.721 9.946-7.986 2.553-.133 6.73 1.557 6.067 4.772-.431 2.154-1.823 2.85-3.315 2.982-1.724.133-2.984-1.391-4.476-1.027-1.658.394-2.917 1.856-2.619 3.181.995 4.309 6.229 5.601 10.075 5.634 5.507.03 9.353-3.413 9.39-7.092.033-4.904-6.432-7.49-10.311-10.505-3.415-2.655-5.702-5.833-5.039-9.283C225.32 4.404 229.896.361 237.455.66c2.652.133 5.636.961 7.559 2.287l1.492-1.223zm42.668 31.88l-.398 2.353-13.228-.099c-4.509 1.989-7.824.862-9.349-.961-2.851 1.027-5.835 1.79-8.819 1.76-4.973-.07-8.322-4.076-7.526-7.622 1.326-5.567 6.067-9.014 18.5-10.306l1.094-4.11c.597-2.253-1.459-2.916-2.818-2.95-1.621-.032-3.813 1.227-3.912 2.818-.199 2.386-2.851 3.778-4.808 3.48-1.724-.233-3.083-2.254-2.486-3.911 1.823-5.137 7.596-5.299 12.167-5.299 6.167-.033 10.046 3.646 8.62 9.114l-2.95 11.16c-.796 2.983.331 4.375 1.724 4.507 1.392.133 3.083-.96 3.514-2.88l2.851-13.321c.298-1.359-.265-3.285-3.382-2.523l.63-2.548 8.786-3.512h3.614l-.63 2.816c2.453-1.657 5.139-2.916 7.924-2.816 3.116.132 5.072 1.557 6.033 3.413 2.686-1.922 6.167-3.513 9.217-3.413 5.736.228 7.46 4.871 6.565 8.284l-2.951 12.991c-.398 1.525-.431 3.38 2.453 3.712l-.431 2.084h-13.891l.431-2.32c2.022-.199 2.851-1.458 3.183-2.846l3.481-15.219c.298-1.226.265-3.28-2.122-3.177-3.183.095-4.708 2.084-5.404 4.772l-3.382 12.858c-.394 1.558-.53 3.609 2.851 3.844l-.397 2.084h-13.892l.431-2.32c1.989-.198 2.851-1.458 3.183-2.846l3.481-15.215c.265-1.226.232-3.28-2.122-3.177-2.354.066-3.945 1.487-5.603 3.711l-3.182 14.45c-.299 1.42-.365 3.313 2.95 3.18zM205.226 18.79c-1.857-.066-3.68-.928-3.713-4.142 0-1.322-.862-2.917-2.819-2.817-4.409.228-5.835 5.468-6.862 10.14-.895 4.11-2.454 11.467 3.249 11.6 3.717.066 7.526-3.38 8.656-7.06l3.714 1.426c-1.559 4.834-7.228 9.047-14.223 8.977-5.669-.066-11.571-4.308-9.781-13.886 1.327-7.025 6.996-14.35 15.782-14.449 5.404-.07 10.078 2.652 9.979 6.43-.066 1.826-2.155 3.88-3.982 3.781zM180.198 7.287c1.923 0 3.813-1.657 4.211-3.645.394-1.985-.862-3.642-2.785-3.642s-3.813 1.657-4.21 3.645c-.398 1.989.862 3.642 2.784 3.642zm1.161 26.515l-.299 2.088h-13.791l.331-2.386c2.188-.033 3.415-.994 3.945-3.214l2.918-12.229c.265-1.226-.663-2.717-3.017-2.386l.497-2.386 9.946-4.44 2.089-.13-5.205 21.968c-.299 1.322.062 2.917 2.586 3.115z" fill="#fff"/><path d="M321.035 35.857l-1.658-8.716 3.113-.63c2.287 5.27 5.636 6.794 9.548 7.258 2.321.265 5.636-1.723 5.702-4.043.034-2.585-3.547-2.916-6.431-3.943-3.78-1.326-9.217-2.884-8.62-8.219.563-5.137 5.437-8.915 12.731-8.616 1.989.066 4.144.928 5.802 1.557l.534-.828h3.415l.828 7.158-3.58.828c-.431-3.048-4.045-5.401-7.062-5.5-2.752-.1-5.636 1.027-5.437 3.114.232 2.287 3.912 3.45 6.332 4.01 5.238 1.226 9.283 2.95 8.72 8.418-.535 5.236-7.095 9.548-12.831 9.25-2.718-.133-5.47-.833-7.791-2.453l-.464 1.359h-2.851v-.004zm-192.059 0l-1.658-8.716 3.117-.63c2.254 5.27 5.636 6.794 9.515 7.258 2.321.265 5.669-1.723 5.702-4.043.033-2.585-3.547-2.916-6.432-3.943-3.746-1.326-9.183-2.884-8.619-8.219.563-5.137 5.47-8.915 12.764-8.616 1.989.066 4.111.928 5.768 1.557l.564-.828h3.382l.829 7.158-3.581.828c-.431-3.048-4.045-5.401-7.062-5.5-2.718-.1-5.603 1.027-5.404 3.114.232 2.287 3.879 3.45 6.333 4.01 5.205 1.226 9.249 2.95 8.719 8.418-.531 5.236-7.095 9.548-12.864 9.25-2.718-.133-5.47-.833-7.791-2.453l-.464 1.359h-2.818v-.004z" fill="#fff"/><path d="M127.518 33.504l.53 2.916c-4.741.796-7.89.299-9.448-1.524-2.818 1.027-5.835 1.79-8.819 1.76-4.94-.07-8.322-4.076-7.493-7.622 1.293-5.567 6.034-9.014 18.5-10.306l1.061-4.11c.596-2.253-1.426-2.916-2.818-2.95-1.592-.032-3.78 1.227-3.912 2.818-.199 2.386-2.852 3.778-4.775 3.48-1.757-.233-3.083-2.254-2.519-3.911 1.823-5.137 7.592-5.299 12.2-5.299 6.167-.033 10.013 3.646 8.587 9.114l-2.951 11.168c-.401 1.55-1.027 4.4 1.857 4.466zm37.928-.663l-.431 3.05c-1.621.629-3.448.993-5.239.857-5.569-.394-6.899-4.006-6.199-7.059l4.044-17.166h-3.381l.563-2.916c4.377-.994 7.195-4.507 9.549-8.712h3.282l-1.757 8.483h5.768l-.762 3.145h-5.769l-3.813 16.176c-.596 2.548-.066 5.17 4.145 4.142z" fill="#fff"/><path d="M102.189 32.841l-.465 3.05c-1.624.629-3.448.993-5.205.857-5.603-.394-6.929-4.01-6.2-7.059l4.012-17.166h-3.348l.53-2.916c4.41-.994 7.194-4.507 9.582-8.712h3.249l-1.724 8.483h5.765l-.763 3.145h-5.765l-3.813 16.176c-.596 2.548-.066 5.17 4.145 4.142zm-28.185.527l-.663 2.618-11.206-.096c-1.989.394-3.978.895-6 .858-1.99 0-3.78-.762-4.874-2.286-2.586 1.325-5.835 2.452-8.918 2.286-3.25-.166-7.294-3.012-6.333-7.39 1.658-7.191 9.35-10.472 17.306-10.505l.995-4.474c.696-3.148-2.785-3.679-4.907-1.525-.829.858-1.226 2.155-1.856 3.145-.928 1.524-2.321 2.187-4.111 1.955-2.155-.232-2.95-2.717-2.288-4.212 1.761-4.238 7.526-5.667 11.969-5.332 6.498.464 8.951 4.209 8.155 7.917L58.558 28.83c-.331 1.525-.497 4.404 1.625 4.441 2.486.066 3.05-2.452 3.481-4.242l2.719-11.367c.364-1.59-.398-3.512-3.713-3.181l.464-2.382 9.017-3.583h3.946l-.564 2.386c2.188-1.425 4.807-2.684 7.725-2.386 6.398.63 7.393 4.975 6.398 9.014l-3.05 12.36c-.364 1.525-.63 3.477 2.951 3.61l-.43 2.386H75.3l.53-2.387c2.454-.132 2.72-1.557 3.05-2.949l3.482-14.416c.663-2.717-.534-4.11-2.056-4.142-2.122-.033-3.846 1.193-5.603 2.684L71.29 29.69c-.368 1.495-.696 3.65 2.715 3.679z" fill="#fff"/><path d="M43.208 1.558l2.288 6.727-2.818 2.084c-2.222-4.238-5.769-4.905-9.25-4.905h-4.675L26.4 15.808h5.272c1.591 0 3.05-1.326 3.912-2.618H38.3l-2.287 10.534h-3.017c.066-2.75-1.558-3.343-3.05-3.343h-4.575l-1.956 8.65c-.398 1.789-.664 4.308 3.248 4.34l-.43 2.718H9.159l.664-2.717c2.453.07 3.978-2.154 4.442-4.11l5.57-23.695h-4.708c-4.608 0-9.548 1.06-10.443 6.33-.266 1.76.795 3.977 2.42 4.772 1.459.73 2.652-.795 2.288-1.856-.63-1.657 1.69-4.043 3.68-3.91a3.468 3.468 0 013.164 2.938 3.457 3.457 0 01-.114 1.536c-.73 2.783-4.148 5.07-6.963 5.103-4.177.067-9.349-2.485-9.154-8.587.27-7.585 8.723-10.335 14.691-10.335h28.512z" fill="#fff"/><path d="M267.389 22.332l-1.856 7.788c-.464 1.922-3.415 2.585-5.338 2.486-2.122-.067-3.614-2.585-2.917-4.21 2.026-4.867 6.667-5.96 10.111-6.064zm-147.596 0l-1.856 7.788c-.431 1.922-3.415 2.585-5.305 2.486-2.122-.067-3.647-2.585-2.951-4.21 2.056-4.867 6.664-5.96 10.112-6.064zm-67.335-.228l-1.956 8.881c-1.392 1.094-3.116 1.856-4.807 1.62-2.089-.26-3.382-2.982-2.254-4.97 1.687-3.112 5.205-5.1 9.017-5.53z" fill="#333646"/></g></svg>
